X:1
T:Title
%%score { 1 | 2 }
L:1/8
M:4/4
K:D
V:1 treble nm="Grand Piano"
V:2 bass 
V:1
 z4 z2[Q:1/4=96] [DF][EG] | [FA][FA][FA][FA] [FA]2 [DF][FA] | [Fd][Fd][Ac][GB] [DFA]2 [A,DF][DFA] | %3
 [CEA][CE][CE][DF] [EG]2 [DF][CEG] | [DGB][DFA][DFA][A,EG] [A,DF]2 [A,DF][A,EG] | %5
 [FA][FA][FA][FA] [FA]2 [DF][FA] | [Fd][Fd][Fd][Ac] B2 d>B | A2 d>d d2 F2 | [G,CE]4 [F,D]2 z2 | %9
 [DFA]2 [A,DF][A,FA] [Fd]2 [Ac][GB] | [FA]>[GB] [FA][DF] [FA]4 | A2 EA c2 Ac | %12
[M:9/8] [^Ge]>[Gd][Gc] [GB] [CEA]2- [CEA][=GA][GA] |[M:4/4] [Fd][Fd][Gc][Gc] [Ad]2 [FA][FA] | %14
 BBcd e2 d>B | A2 d>d d2 F2 |[M:3/4] [CE]4 D2 |] %17
V:2
 z4 z2 [D,A,][D,A,] | [D,D][D,D][D,D][D,D] [D,D]2 [D,A,][D,D] | [D,A,][D,A,][D,A,][D,A,] D,2 D,D, | %3
 A,,[A,,A,][A,,A,][A,,A,] [A,,A,]2 [A,,A,]A,, | D,D,D,D, D,2 D,D, | %5
 [D,D][D,D][D,D][D,D] [D,D]2 [D,A,][D,D] | %6
 [D,A,][D,A,][D,A,][F,D][K:treble] [G,DG]2 [G,B,G]>[G,DG] | %7
 [A,DF]2 [A,F]>[A,F][K:bass] [F,A,D]2 [D,A,D]2 | A,,4 D,2 z2 | D,2 D,D, [D,A,]2 [D,A,][D,D] | %10
 [D,D]>[D,D] [D,D][D,A,] [D,D]4 | [A,CE]2 [A,C][A,CE] [A,EA]2 [A,CE][A,CA] | %12
[M:9/8][K:bass] [E,B,]>[E,B,][E,E] [E,D] [A,,A,]2- [A,,A,][A,C][A,C] | %13
[M:4/4] [D,A,][D,A,][E,A,][E,A,] [F,A,]2 [D,D][D,D] | %14
 [G,DG][G,DG][G,CG][G,B,G] [G,B,G]2 [G,B,G]>[G,DG] | %15
 [A,DF]2 [A,F]>[A,F][K:bass] [F,A,D]2 [D,A,D]2 |[M:3/4] [A,,G,]4 [D,F,]2 |] %17

